X: 8
T: The Return To Miltown
R: reel
M: 4/4
L: 1/8
K: Ddor
D2ED ADED|C2EC FCEC|D2ED ADED|CDEG cAGE|
D2ED ADED|C2EC FCEC|F2FD E2ED|CDEG cAGA||
K:Dmaj
d3e f2ed|cdef g2fe|dcde f2ed|cAGE EDD2|
d3e f2ed|cdef gfge|f2fd efed|cAGE EDD2||

